symbols/web/receipt_long/materialsymbolsoutlined/receipt_long_wght100gradN25_24px.svg

<svg xmlns="http://www.w3.org/2000/svg" height="24" width="24"><path d="M6.05 20.575q-.7 0-1.162-.463-.463-.462-.463-1.162v-1.6H7.4V3.925l1.175.675L9.8 3.925l1.225.675 1.25-.675L13.5 4.6l1.225-.675 1.225.675 1.225-.675 1.25.675 1.175-.675V18.95q0 .7-.475 1.162-.475.463-1.175.463Zm11.9-.65q.425 0 .713-.275.287-.275.287-.7V5.05H8.025v12.3h8.95v1.6q0 .425.275.7.275.275.7.275Zm-8.4-11.6V7.7h5.075v.625Zm0 2.975v-.625h5.075v.625Zm7.25-2.625q-.25 0-.45-.2t-.2-.45q0-.275.2-.475.2-.2.45-.2.275 0 .475.2.2.2.2.475 0 .25-.2.45t-.475.2Zm0 2.975q-.25 0-.45-.2t-.2-.45q0-.275.2-.475.2-.2.45-.2.275 0 .475.2.2.2.2.475 0 .25-.2.45t-.475.2ZM6.05 19.925h10.275V18H5.05v.95q0 .425.288.7.287.275.712.275Zm-1 0V18v1.925Z"/></svg>

<svg xmlns="http://www.w3.org/2000/svg" height="24" width="24"><path d="M6.05 20.575Q5.35 20.575 4.888 20.112Q4.425 19.65 4.425 18.95V17.35H7.4V3.925L8.575 4.6L9.8 3.925L11.025 4.6L12.275 3.925L13.5 4.6L14.725 3.925L15.95 4.6L17.175 3.925L18.425 4.6L19.6 3.925V18.95Q19.6 19.65 19.125 20.112Q18.65 20.575 17.95 20.575ZM17.95 19.925Q18.375 19.925 18.663 19.65Q18.95 19.375 18.95 18.95V5.05H8.025V17.35H16.975V18.95Q16.975 19.375 17.25 19.65Q17.525 19.925 17.95 19.925ZM9.55 8.325V7.7H14.625V8.325ZM9.55 11.3V10.675H14.625V11.3ZM16.8 8.675Q16.55 8.675 16.35 8.475Q16.15 8.275 16.15 8.025Q16.15 7.75 16.35 7.55Q16.55 7.35 16.8 7.35Q17.075 7.35 17.275 7.55Q17.475 7.75 17.475 8.025Q17.475 8.275 17.275 8.475Q17.075 8.675 16.8 8.675ZM16.8 11.65Q16.55 11.65 16.35 11.45Q16.15 11.25 16.15 11Q16.15 10.725 16.35 10.525Q16.55 10.325 16.8 10.325Q17.075 10.325 17.275 10.525Q17.475 10.725 17.475 11Q17.475 11.25 17.275 11.45Q17.075 11.65 16.8 11.65ZM6.05 19.925H16.325V18H5.05V18.95Q5.05 19.375 5.338 19.65Q5.625 19.925 6.05 19.925ZM5.05 19.925Q5.05 19.925 5.05 19.65Q5.05 19.375 5.05 18.95V18V19.925Z"/></svg>
